X: 215
T:River John Sunset Waltz
R:waltz
C:Florence Killen
Z:added by Alf warnock alf0@rogers.com - www.alfwarnock.info/alfs
M:3/4
L:1/8
K:D
A FE|"D"D3E FG|A2 F2 D2| "G"G3F GB|d4 dB|\
"D"A4 AG|"F#m"F2 G2 F2| "Em"E6-|"A7"E3A FE|
"D"D3E FG|A2 F2 D2| "G"G3F GB|d4 dB|\
"D"A4 AF|"A7"E2 F2 E2| "D"D6-|D3B AG||
"D"F3A de|"D7"f2 g2 a2| "G"g3a gd|B4 dB|\
"D"A2 d3d|d2 e2 f2| "A7"e6-|e3B AG|
"D"F3A de|"D7"f2 g2 a2| "G"g3a gd|B4 dB|\
"D"A2 d3d|"A7"e2 f2 e2| "D"d6-|d6|]
%%text Harmony
d AG|F3G AB|d2 A2 F2|B3A Bd|g4 fe|\
d4 dB|A2 B2 A2|c6-|c3d AG|
F3G AB|d2 A2 F2|B3A Bd|g4 fe|\
d4 dA|G2 A2 G2|F6-|F3G FD||
D3E FG|A2 B2 =c2|B3=c BB|G4 AG|\
F2 A3A|A2 B2 d2|c6-|c3G FE|
D3E FG|A2 B2 =c2|B3c BB|G4 AG|\
F2 A3A|G2 A2 G2|F6-|F3d AG|]
